icons/pediatric_surgery_fill.svg

<svg width="48" height="48" viewBox="0 0 48 48" fill="none" xmlns="http://www.w3.org/2000/svg">
<path fill-rule="evenodd" clip-rule="evenodd" d="M25.2012 11.23C25.2012 14.1184 22.8662 16.46 19.9859 16.46C17.1055 16.46 14.7705 14.1184 14.7705 11.23C14.7705 8.34155 17.1055 6 19.9859 6C22.8662 6 25.2012 8.34155 25.2012 11.23ZM8.20547 15.1388L8.21543 15.1602C9.78096 18.5243 11.6053 20.3718 13.7222 21.2943L14.7705 21.7512V25.4997H25.2295V21.7512L26.2778 21.2943C28.3947 20.3718 30.219 18.5243 31.7846 15.1602L31.7945 15.1388L31.8051 15.1177C31.8843 14.9587 32.0105 14.571 31.9993 14.1385C31.9892 13.747 31.8729 13.3799 31.5505 13.0567C31.1358 12.6409 30.8031 12.5487 30.5554 12.5334C30.261 12.5153 29.9026 12.5994 29.489 12.8047C29.4787 12.8112 29.4082 12.8562 29.2687 12.9919C29.1112 13.145 28.9267 13.3529 28.6901 13.6361C28.5949 13.7501 28.4913 13.8766 28.38 14.0123C27.977 14.5042 27.4741 15.1178 26.9151 15.6944C25.4255 17.231 23.2603 18.8129 20 18.8129C16.7397 18.8129 14.5745 17.231 13.0849 15.6944C12.5259 15.1178 12.0235 14.5048 11.6205 14.0129C11.5091 13.877 11.4052 13.7502 11.3099 13.6361C11.0733 13.3529 10.8888 13.145 10.7313 12.9919C10.5918 12.8562 10.5214 12.8115 10.5111 12.805C10.0975 12.5997 9.73895 12.5153 9.44458 12.5334C9.1969 12.5487 8.86415 12.6409 8.44946 13.0567C8.12714 13.3799 8.01084 13.747 8.0007 14.1385C7.9895 14.571 8.11568 14.9587 8.19494 15.1177L8.20547 15.1388ZM14.7705 28.7243V27.4997H25.2295V28.7243C25.2295 29.3606 24.6329 30.9949 22.8024 31.7779C22.5929 31.8675 22.3574 31.9799 22.1458 32.0808L22.0213 32.1401C21.7612 32.2636 21.5096 32.3804 21.2551 32.4839C20.7243 32.7 20.3103 32.8031 20 32.8031C19.6897 32.8031 19.2757 32.7 18.7449 32.4839C18.4904 32.3804 18.2388 32.2636 17.9787 32.1401L17.8542 32.0808C17.6426 31.9799 17.4071 31.8675 17.1976 31.7779C15.3671 30.9949 14.7705 29.3606 14.7705 28.7243ZM14.3676 31.3811C14.7754 32.263 15.5417 33.1966 16.7614 33.787C16.4641 34.0355 16.1834 34.3292 15.9266 34.7475C15.4264 35.5624 14.9965 36.569 14.9965 37.5174C14.9965 38.3844 15.3216 39.1303 15.5678 39.6953L15.5858 39.7366C15.8577 40.361 16.0295 40.7811 16.0295 41.2253C16.0295 42.2238 15.2452 42.9997 14.3186 42.9997C13.4551 42.9997 12.7718 42.3704 12.263 41.1524C11.766 39.963 11.5748 38.4955 11.5748 37.5174C11.5748 34.8686 12.5719 32.9128 14.3676 31.3811ZM25.6324 31.3811C25.2246 32.263 24.4583 33.1966 23.2386 33.787C23.5359 34.0355 23.8166 34.3292 24.0734 34.7475C24.5736 35.5624 25.0035 36.569 25.0035 37.5174C25.0035 38.3844 24.6784 39.1303 24.4322 39.6953L24.4142 39.7366C24.1423 40.361 23.9705 40.7811 23.9705 41.2253C23.9705 42.2238 24.7548 42.9997 25.6814 42.9997C26.5449 42.9997 27.2282 42.3704 27.737 41.1524C28.234 39.963 28.4252 38.4955 28.4252 37.5174C28.4252 34.8686 27.4281 32.9128 25.6324 31.3811ZM35 38V31C35 29.8954 35.8954 29 37 29C38.1046 29 39.0181 29.9023 38.8469 30.9936C38.114 35.6645 35 38 35 38ZM38 26.5C38 27.3284 37.3284 28 36.5 28C35.9352 28 35.4434 27.6879 35.1875 27.2267L38 24.4142V26.5ZM38 21.5858L35 24.5858V22.4142L38 19.4142V21.5858ZM38 16.5858L35 19.5858V12.5C35 11.6716 35.6716 11 36.5 11C37.3284 11 38 11.6716 38 12.5V16.5858Z" fill="black"/>
</svg>

<svg
  xmlns="http://www.w3.org/2000/svg"
  width="24"
  height="24"
  viewBox="0 0 24 24"
  fill="none"
  stroke="currentColor"
  stroke-width="2"
  stroke-linecap="round"
  stroke-linejoin="round"
>
  <path
    fill-rule="evenodd"
    d="M25.201 11.23c0 2.888-2.335 5.23-5.215 5.23s-5.216-2.342-5.216-5.23S17.106 6 19.987 6c2.88 0 5.215 2.342 5.215 5.23M8.205 15.139l.01.021c1.566 3.364 3.39 5.212 5.507 6.134l1.049.457V25.5H25.23V21.75l1.048-.457c2.117-.922 3.941-2.77 5.507-6.134l.01-.021.01-.021c.08-.16.206-.547.194-.98-.01-.391-.126-.758-.448-1.081-.415-.416-.748-.508-.996-.524-.294-.018-.652.066-1.066.272-.01.006-.08.051-.22.187a9 9 0 0 0-.579.644l-.31.376a27 27 0 0 1-1.465 1.682c-1.49 1.537-3.655 3.119-6.915 3.119s-5.425-1.582-6.915-3.119a27 27 0 0 1-1.465-1.681q-.166-.205-.31-.377a9 9 0 0 0-.579-.644c-.14-.136-.21-.18-.22-.187-.413-.205-.772-.29-1.066-.272-.248.016-.58.108-.996.524-.322.323-.438.69-.448 1.082-.011.432.115.82.194.979zm6.566 13.585V27.5H25.23v1.224c0 .637-.597 2.27-2.428 3.054-.21.09-.445.202-.656.303l-.125.06c-.26.123-.511.24-.766.343-.53.216-.945.32-1.255.32s-.724-.104-1.255-.32c-.255-.104-.506-.22-.766-.344l-.125-.06c-.211-.1-.447-.212-.656-.302-1.83-.783-2.427-2.417-2.427-3.054m-.403 2.657a5.03 5.03 0 0 0 2.393 2.406 3.8 3.8 0 0 0-.834.96c-.5.815-.93 1.822-.93 2.77 0 .867.325 1.613.57 2.178l.019.042c.272.624.443 1.044.443 1.488 0 .999-.784 1.775-1.71 1.775-.864 0-1.547-.63-2.056-1.848-.497-1.189-.688-2.657-.688-3.635 0-2.648.997-4.604 2.793-6.136m11.264 0a5.03 5.03 0 0 1-2.393 2.406c.297.248.578.542.834.96.5.815.93 1.822.93 2.77 0 .867-.325 1.613-.57 2.178l-.019.042c-.272.624-.444 1.044-.444 1.488 0 .999.785 1.775 1.711 1.775.864 0 1.547-.63 2.056-1.848.497-1.189.688-2.657.688-3.635 0-2.648-.997-4.604-2.793-6.136M35 38v-7a2 2 0 0 1 2-2c1.105 0 2.018.902 1.847 1.994C38.114 35.664 35 38 35 38m3-11.5a1.5 1.5 0 0 1-2.812.727L38 24.414zm0-4.914-3 3v-2.172l3-3zm0-5-3 3V12.5a1.5 1.5 0 0 1 3 0z"
    clip-rule="evenodd"
  />
</svg>
